!!!OTL: 1386. Der sterbende Reiter.
!!!ARE: Europa, Mitteleuropa, Deutschland, Hessen, Wetterau
!!!SCT: E1386A
!!!TXL: @@DE
!!!YEM: Copyright 1995, estate of Helmut Schaffrath.
**kern	**text
*ICvox	*
*M3/4	*
*k[b-e-]	*
*B-:	*
!LO:TX:a:t=Langsam.	!
!LO:TX:a:t=Wetterau.	!
{4f	Bei
=1	=1
4b-/	Se-
4f	-dan
8f	auf
8f	den
=2	=2
4g	Hö-
4g}	-hen
{4b-	da
=3	=3
4.a	ſtand
8e-	nach
8g	blut-
8g	-ger
=4	=4
4f	Schlacht
4r}	.
{4f	bei
=5	=5
4dd	ſtil-
4cc	-lem
8b-	A-
8b-	-bend-
=6	=6
4b-/	-we-
4g}	-hen
{4cc	ein
=7	=7
8a	Bay-
8a	-er
4g	auf
4a	der
=8	=8
2b-}	Wacht.
==	==
!!!AGN: Staende -, Soldaten -, Kriegs - Lied
!!!ONB: ESAC (Essen Associative Code) Database: ERK3
!!!AMT: simple triple
!!!AIN: vox
!!!EED: Helmut Schaffrath
!!!EEV: 1.0
!!!GTL: Staendelieder (Berufslieder). 1. Soldaten- und Kriegslieder. Soldatenlieder seit dem 30jaehr. Kriege.
!!!URL-scan: https://rosdok.uni-rostock.de/mcrviewer/recordIdentifier/rosdok_ppn745177999/iview2/phys_0258.iview2?x=-101.51655504651899&y=1283.0600959468866&scale=0.5870222003877487&rotation=0&layout=singlePageLayout
!!!ENC: Anna Maria Matuszewska
!!!EEV: 2024/12/30
*-	*-
